!!!COM: Free Throw
!!!OTL: Pallet Town
!!!YEAR:2014
**kern
*B:
*
*
*M(4/4)
=1=1
8g#
8f#
8d#
8B
8c#
8d#
8d#
8B
=2=2
8F#
8G#
8B
8G#
8A#
8B
8d#
8B
=3=3
8G#
8d#
8g#
8G#
8d#
8g#
8G#
8d#
=4=4
8f#
8F#
8B
8f#
8F#
8B
4f#
=5=5
8g#
8f#
8 d#
8B
8c#
8d#
8d#
8B
=6=6
8F#
8G#
8B
8G#
8A#
8B
8d#
8B
=7=7
8G#
8d#
8g#
8G#
8d#
8a#
8G#
8d#
=8=8
8b
8G#
8d#
8b
8G#
8d#
4b
*-
